X:1
T:Newcastle (Morley), 86.886
T:Newcastle (Morley), 86.886
T:Henry Killick Morley, 1875
T:Public Domain Courtesy of the Cyber Hymnal™
C:Henry Killick Morley, 1875
Z:Public Domain
Z:Courtesy of the Cyber Hymnal™
%%score ( 1 2 ) ( 3 4 )
L:1/8
Q:1/4=110
M:4/4
K:G
V:1 treble 
V:2 treble 
V:3 bass 
V:4 bass 
V:1
 [DG]2 | [DG]3 [DF] [DF]2 [DA]2 | [DA]3 [DG] [DG]2 [DB]2 | d2 [Ec]2 [EG]2 [_EA]2 | [DB]6 [DB]2 | %5
 [^DB]3 [DF] [EG]2 [EG]2 | [EA]3 [^CE] [DF]2 [DF]2 | G2 [FA]2 [GB]2 [GB]2 | %8
 [Gc]2 [Gd]2 [Ge]2 [FA]2 | [Gd]4 (G2 [Cc]2) | [DB]6 [CA]2 | [B,G]6 |] %12
V:2
 x2 | x8 | x8 | (G=F) x6 | x8 | x8 | x8 | G2 x6 | x8 | x4 G2 x2 | x8 | x6 |] %12
V:3
 [G,B,]2 | [A,C]3 [A,C] [A,C]2 [F,C]2 | [G,C]3 [G,B,] [G,B,]2 G,2 | %3
 [B,,G,]2 [C,G,]2 [C,G,]2 [C,F,]2 | [G,,G,]6 [G,,G,]2 | [B,,F,]3 [B,,B,] [E,B,]2 [D,B,]2 | %6
 [^C,A,]3 [A,,A,] [D,A,]2 [=CD]2 | [B,D]2 [A,D]2 [G,D]2 [=F,D]2 | [E,C]2 [D,B,]2 [^C,A,]2 [=C,D]2 | %9
 [B,,D]4 ([E,B,]2 [A,,A,]2) | [D,G,]6 [D,F,]2 | [G,,G,]6 |] %12
V:4
 x2 | x8 | x6 G,2 | x8 | x8 | x8 | x8 | x8 | x8 | x8 | x8 | x6 |] %12

